X: 22051
T: Knockawhinna, The
R: jig
M: 6/8
K: Gmajor
DGF G2A|BdG ABc|dgf d2^c|ded cAF|
DGF G2A|BdG ABc|dgf ded|1 cAF G2E:|2 cAF G2^G||
K: Dmaj
AFA d2e|faf gec|d2f ecA|GFG AFG|
AFA d2e|faf gec|a2a gec|1 edc d2B:|2 edc d^c=c||
K: Gmaj
BAB GBd|gfg ece|dBd cAc|BGB AFD|
d^cd GBd|gfa gfa|gdB cAF|1 AGF G2A:|2 AGF G2E||

